!!!ONB: MCCC : IJH0446_04 : Extracted Monophonic Melody
!!!COM: Haydn, Joseph
!!!OPR: String Quartet in E-flat major
!!!OMV: 4
!!!SCT: Hob.III:38 ; Op.33 No.2
!!!ODT: 1781///
**kern
*thru
*k[b-e-a-]
*E-:
*clefG
*M6/8
8gg
=1
4gg
8aa-
8ff
8gg
8aa-
=2
8bb-
8gg
8ee-
8ee-
8r
8ff
=3
4ff
8gg
8ee-
8dd
8cc
=4
8b-
8a
8b-
8b-
8r
8b
=5
4b
8cc
8a-
8g
8f
=6
8b-
8cc
8dd
8ee-
8ff
8gg
=7
4aa-
8r
8ff
8ee-
8dd
=8
4ee-
4.r
8ff
=9
4ff
8gg
8dd
8ee-
8ee
=10
8ff
8dd
8b-
8b-
8r
8bb-
=11
4bb-
8aa
8bb-
8aa-
8ff
=12
8bb-
8gg
8ee-
8ee-
8r
8bb-
=13
8bb
8ccc
8ccc
8ccc
8bb-
8bb-
=14
4.bb-
4aa-
8ff
=15
8ff
8gg
8gg
8gg
8aa-
8ff
=16
4.ee-
4dd
8b-
=17
8a
8b-
8cc
8dd
8ee-
8a
=18
8b-
8dd
8ff
8aa
8bb-
8b-
=19
8a
8b-
8cc
8dd
8ee-
8a
=20
8b-
8dd
8ff
8aa
8bb-
8b-
=21
8a
8b-
8cc
8dd
8ee-
8a
=22
4b-
4.r
8b-
=23
8b-
8cc
4.r
8cc
=24
8cc
8dd
4.r
8dd
=25
8dd
8ee-
8ee-
8ee-
8ee
8ee
=26
8ee
8ff
8ff
8ff
8gg
8gg
=27
2.gg
=28
4aa-
4.r
8gg
=29
4gg
8aa-
8ff
8gg
8aa-
=30
8bb-
8gg
8ee-
8ee-
8r
8ff
=31
4ff
8gg
8ee-
8dd
8cc
=32
8b-
8a
8b-
8b-
8r
8b
=33
4b
8cc
8a-
8g
8f
=34
8b-
8cc
8dd
8ee-
8ff
8gg
=35
4aa-
8r
8ff
8ee-
8dd
=36
4ee-
2r
=37
4ee-
4.r
8ee-
=38
8dd-
8ee-
8cc
8b-
8cc
8a-
=39
8g
8a-
8b-
4b-
8ee-
=40
8dd-
8ee-
8cc
8b-
8cc
8a-
=41
8g
8a-
8b-
8e-
8f
8g
=42
2a-
8a-
8a-
=43
8g
8a-
8b-
8e-
8f
8g
=44
2A-
8a-]
8a-
=45
8g
8a-
8b-
8e-
8f
8g
=46
8a-
8b-
8cc
8a-
8b-
8cc
=47
8g
8a-
8b-
8e-
8f
8g
=48
2a-[
8a-]
8a-
=49
8g
8a-
8b-
8c
8d
8e
=50
2f[
8f]
8f
=51
8e
8f
8g
8c
8d
8e
=52
8f
8g
8a-
8f
8g
8a-
=53
8e
8f
8g
8c
8d
8e
=54
2f[
8f]
8ee-
=55
8dd
8ee-
8ff
8b-
8cc
8dd
=56
4.ee-
4ee-
8ee-
=57
8dd
8ee-
8ff
8b-
8cc
8dd
=58
8ee-
8ff
8gg
8ee-
8ff
8gg
=59
8dd
8ee-
8ff
8b-
8cc
8dd
=60
8ee-
8ff
8gg
8cc
8dd
8ee-
=61
8ff
8gg
8aa-
8dd
8ee-
8ff
=62
8gg
8aa-
8bb-
8ee-
8ff
8gg
=63
8aa-
8bb-
8ccc
8bb-
8ccc
8aa-
=64
8gg
8ff
8ee-
8eee-
8ccc
8aa
=65
8bb-
8ddd
8bb-
8eee-
8ccc
8aa
=66
8bb-
8ddd
8bb-
8eee-
8ccc
8aa
=67
8bb-
8ccc
8ddd
8ff
8gg
8aa
=68
8bb-
8ccc
8ddd
8ff
8gg
8aa
=69
4bb-
2r
=70
4aa
2r
=71
4aa-
2r
=72
2r
8r
8gg
=73
4gg
8aa-
8ff
8gg
8aa-
=74
8bb-
8gg
8ee-
8ee-
8r
8ff
=75
4ff
8gg
8ee-
8dd
8cc
=76
8b-
8a
8b-
8b-
8r
8b
=77
4b
8cc
8a-
8g
8f
=78
8b-
8cc
8dd
8ee-
8ff
8gg
=79
4aa-
8r
8ff
8ee-
8dd
=80
4ee-
4.r
8ff
=81
4ff
8gg
8dd
8ee-
8ee
=82
8ff
8dd
8b-
8b-
8r
8bb-
=83
4bb-
8aa
8bb-
8aa-
8ff
=84
8bb-
8gg
8ee-
8ee-
8r
8bb-
=85
8bb
8ccc
8ccc
8ccc
8bb-
8bb-
=86
4.bb-
4aa-
8ff
=87
8ff
8gg
8gg
8gg
8aa-
8ff
=88
4.ee-
4dd
8b-
=89
8a
8b-
8cc
8dd
8ee-
8a
=90
8b-
8dd
8ff
8aa
8bb-
8b-
=91
8a
8b-
8cc
8dd
8ee-
8a
=92
8b-
8dd
8ff
8aa
8bb-
8b-
=93
8a
8b-
8cc
8dd
8ee-
8a
=94
4b-
4.r
8b-
=95
8b-
8cc
4.r
8cc
=96
8cc
8dd
4.r
8dd
=97
8dd
8ee-
8ee-
8ee-
8ee
8ee
=98
8ee
8ff
8ff
8ff
8gg
8gg
=99
2.gg
=100
4aa-
4.r
8gg
=101
4gg
8aa-
8ff
8gg
8aa-
=102
8bb-
8gg
8ee-
8ee-
8r
8ff
=103
4ff
8gg
8ee-
8dd
8cc
=104
8b-
8a
8b-
8b-
8r
8b
=105
4b
8cc
8a-
8g
8f
=106
8b-
8cc
8dd
8ee-
8ff
8gg
=107
4aa-
8r
8ff
8ee-
8dd
=108
4ee-
4.r
8eee-
=109
8ddd
8eee-
8ccc
8bb-
8ccc
8aa-
=110
8gg
8aa-
8bb-
4bb-
8eee-
=111
8ddd
8eee-
8ccc
8bb-
8ccc
8aa-
=112
8gg
8aa-
8bb-
8bb-
8bb-
8bb-
=113
8bb-
8bb-
8bb-
8bb-
8bb-
8bb-
=114
8bb-
8bb-
8bb-
8bb-
8bb-
8bb-
=115
8bb-
8bb-
8bb-
8bb-
8bb-
8bb-
=116
8bb-
8bb-
8bb-
8bb-
8bb-
8bb-
=117
8bb-
8ccc
8ddd
8eee-
8ccc
8aa-
=118
8aa-
8gg
8gg
4gg
8gg
=119
8gg
8aa-
8bb-
8ccc
8aa-
8ff
=120
8ff
8ee-
8ee-
4ee-
8ee-
=121
8dd
8b-
8bb-
8aa-
8ff
8bb-
=122
8gg
8ee-
8b-
8g
8e-
8ee-
=123
8dd
8b-
8bb-
8aa-
8ff
8bb-
=124
8gg
8ee-
8b-
8g
8e-
8gg
=125
8aa-
8gg
8ff
8ee
8gg
8aa-
=126
8bb-
8aa-
8gg
8ff
8aa-
8bb-
=127
8ccc
8bb-
8aa-
8ccc
8bb-
8aa-
=128
8ccc
8bb-
8aa-
8gg
8ff
8ee-
=129
8dd
8ff
8aa
8bb-
8ddd
8bb-
=130
8aa
8ccc
8aa
8eee-
8ccc
8aa
=131
8bb-
8dd
8ff
8bb-
8ddd
8bb-
=132
8aa
8ccc
8aa
8eee-
8ccc
8aa
=133
4bb-
4.r
8aa
=134
8aa
8bb-
4.r
8aa
=135
8aa
8bb-
4.r
8aa
=136
8aa
8bb-
2r
=137
2r
8r
8gg
=138
8gg
8aa-
4.r
8gg
=139
8gg
8aa-
4.r
8gg
=140
2.gg
=141
4.aa-
4r
8gg
=142
4gg
8aa-
8ff
8gg
8aa-
=143
8bb-
8gg
8ee-
4ee-
8ff
=144
4ff
8gg
8ee-
8dd
8cc
=145
8b-
8a
8b-
4b-
8b
=146
4b
8cc
8a-
8g
8f
=147
8b-
8cc
8dd
8ee-
8ff
8gg
=148
4aa-
8r
8ff
8ee-
8dd
=149
4ee-
8r
4r
*M2/4
16r
16cc
=150
4cc
32b-
16a-
32r
32g
16f
32r
=151
8b-
4r
16r
16a-
=152
4a-
32g
16f
32r
32e-
16d
32r
=153
8e-
8r
8r
*M6/8
8gg
=154
4gg
8aa-
8ff
8gg
8aa-
=155
8bb-
8gg
8ee-
8ee-
4r
=156
2.r
=157
2r
8r
8ff
=158
4ff
8gg
8ee-
8dd
8cc
=159
8b-
8a
8b-
8b-
4r
=160
2.r
=161
2r
8r
8b
=162
4b
8cc
8a-
8g
8f
=163
8b-
8cc
8dd
8ee-
4r
=164
2.r
=165
2r
8r
8gg
=166
4gg
8aa-
8ff
8ee-
8dd
=167
4ee-
2r
=168
2.r
=169
2.r
=170
2.r
=171
2r
8r
8gg
=172
4gg
8aa-
8ff
8gg
8aa-
=173
8bb-
8gg
8ee-
8ee-
4r
==
*-
